icons/activitypub-light.svg

<svg xmlns="http://www.w3.org/2000/svg" width="256" height="256" fill="none" viewBox="0 0 256 256"><rect width="256" height="256" fill="#F4F2ED" rx="60"/><path fill="#F1027E" fill-rule="evenodd" d="M137.15 52L223.991 115.279V140.516L137.15 204.171V178.935L206.683 128.086L137.15 77.613V52Z" clip-rule="evenodd"/><path fill="#F1027E" fill-rule="evenodd" d="M137.15 102.849L171.767 128.086L137.15 153.322V102.849Z" clip-rule="evenodd"/><path fill="#6D6D6D" fill-rule="evenodd" d="M119.841 52L33 115.279V140.516L102.533 90.0429V191.365L119.841 204.171V52ZM85.2242 128.086L50.3086 153.322L84.9257 178.558V128.086H85.2242Z" clip-rule="evenodd"/></svg>

<svg xmlns="http://www.w3.org/2000/svg" width="256" height="256" fill="none"><rect width="256" height="256" fill="#F4F2ED" rx="60"/><path fill="#F1027E" fill-rule="evenodd" d="m137.15 52 86.841 63.279v25.237l-86.841 63.655v-25.236l69.533-50.849-69.533-50.473z" clip-rule="evenodd"/><path fill="#F1027E" fill-rule="evenodd" d="m137.15 102.849 34.617 25.237-34.617 25.236z" clip-rule="evenodd"/><path fill="#6D6D6D" fill-rule="evenodd" d="M119.841 52 33 115.279v25.237l69.533-50.473v101.322l17.308 12.806zm-34.617 76.086L50.31 153.322l34.617 25.236v-50.472z" clip-rule="evenodd"/></svg>
